!!!OTL: ES GIENG EIN KNAB SPAZIEREN
!!!ARE: Europa, Mitteleuropa, Deutschland, Siegen
!!!SCT: E0131
!!!YEM: Copyright 1995, estate of Helmut Schaffrath.
**kern
*ICvox
*Ivox
*M2/4
*k[b-]
*F:
{8c
=1
8f
8a
8cc
8dd
=2
8.cc
16b-
8a}
{16cc
16dd
=3
8cc
8b-
8g
8cc
=4
4a
8r}
{16cc
16dd
=5
8cc
8b-
8g
8e
=6
8.f
16a
8cc}
{8cc
=7
8dd
16dd
16ee
16ff
16ee
8dd
=8
4cc}
{4b-
=9
8a
8f
8g
16a
16g
=10
4f
8r}
==
!!!AGN: erzaehlendes Volks - Lied, Schalk -, Schelmen - Lied; Vergewaltigung     Ballade ?
!!!ONB: ESAC (Essen Associative Code) Database: ERK1
!!!AMT: simple duple
!!!AIN: vox
!!!EED: Helmut Schaffrath
!!!EEV: 1.0
*-
!!!title: @{OTL} [@{SCT}]
